X: 11031
T: KELSO RACES
%R: jig
B: "Edinburgh Repository of Music" v.1 p.103 #1
F: http://digital.nls.uk/special-collections-of-printed-music/pageturner.cfm?id=87776133
Z: 2015 John Chambers <jc:trillian.mit.edu>
M: 6/8
L: 1/8
K: D
A |\
~d>ed (fd).d | (ed).d (fd).d |\
Td>ed (fd).d | fdB B>AF |\
d>ed fdd | (ed).d (fd)d |
d>ed {ef}g2e | fdB ~B2 !segno!:|\
|: d |\
(AF).A (A2B) | AFA A2B |\
AFA A2d | fdB ~B2d |
AFA A2B | AFA A2d |\
BAB {ef}g2e | fdB ~B2 :|\
|: (A//B//c/) |\
df/g/a/f/  af/g/a/f/ | bg/a/b/g/ af/g/a/f/ |
df/g/a/f/ af/g/a/g/ | fdB BAF |\
df/g/a/f/ af/g/a/f/ | bb/c'/d'/b/ af/g/a/f/ |\
ge/f/g/e/ af/g/a/g/ | fdB ~B2 !segno!:|
